source/images/icon-mode-1.svg

<svg width="16" height="14" viewBox="0 0 16 14" fill="none" xmlns="http://www.w3.org/2000/svg"><path d="M4 0H0v6h4V0zm12 0h-4v6h4V0zm-6 0H6v6h4V0zM4 8H0v6h4V8zm12 0h-4v6h4V8zm-6 0H6v6h4V8z" fill="#000"/></svg>

<svg width="16" height="14" viewBox="0 0 16 14" fill="none" xmlns="http://www.w3.org/2000/svg">
<path d="M4 0H0V6H4V0Z" fill="black"/>
<path d="M16 0H12V6H16V0Z" fill="black"/>
<path d="M10 0H6V6H10V0Z" fill="black"/>
<path d="M4 8H0V14H4V8Z" fill="black"/>
<path d="M16 8H12V14H16V8Z" fill="black"/>
<path d="M10 8H6V14H10V8Z" fill="black"/>
</svg>
